img/soon/x.svg

<svg width="24" height="24" viewBox="0 0 24 24" fill="none" xmlns="http://www.w3.org/2000/svg">
<path d="M18.9014 1H22.5816L14.5415 10.1893L24 22.6938H16.5941L10.7935 15.1099L4.15631 22.6938H0.473926L9.07356 12.8648L0 1H7.59394L12.8372 7.932L18.9014 1ZM17.6098 20.491H19.649L6.48589 3.08705H4.29759L17.6098 20.491Z" fill="white"/>
</svg>

<svg width="24" height="24" viewBox="0 0 24 24" fill="none" xmlns="http://www.w3.org/2000/svg"><path d="M18.901 1h3.68l-8.04 9.19L24 22.693h-7.406l-5.8-7.584-6.638 7.584H.474l8.6-9.83L0 1h7.594l5.243 6.932L18.901 1zM17.61 20.491h2.039L6.486 3.087H4.298L17.61 20.491z" fill="#fff"/></svg>
